X: 20568
T: John Naughton's Green Mountain
R: reel
M: 4/4
K: Dmajor
|:AFFF AFEF|DFFF ABde|fdaf effe|dBGB d3B|
AFFF AFEF|DFFF ABde|faaf e2fe|dBGB d3B:|
|:dfff afff|afef dBBA|dfff afff|afef d4|
df (3fgf afff|afef dBB2|AFF2 ABdf|afe2 d4:|

